X: 1042
T: WINSLOW BLUES' QUICK-STEP
B: Oliver Ditson "The Boston Collection of Instrumental Music" 1910 p.104 #2
F: http://conquest.imslp.info/files/imglnks/usimg/8/8f/IMSLP175643-PMLP309456-bostoncollection00bost_bw.pdf
%: 2012 John Chambers <jc:trillian.mit.edu>
M: 2/4
L: 1/16
K: D
|:\
d4 f4 | e2f2 g4 | fdfa bagf | agfe dcBA |\
d4 f4 | e2f2 g4 | fafd egec | d2f2 d4 :|
|:\
c4 f4 | d2c2 B4 | B4 e4 | c2B2 A4 |\
d4 f4 | e2f2 g4 | fafd egec | d2f2 d4 H:|
|:[K:G]\
B3cd2e2 | d2b2g2b2 | a3gf2a2 | c'2b2 g4 |\
GABc dedc | d2b2g2b2 | a3gf2a2 | g2b2 g4 :|
|:\
D2DD D2D2 | (_E4 D2)z2 | (c4 A2)z2 | (=E4 F2)z2 |\
(A4 c2)z2 | B2c2 d4 | (A4 c2)z2 | B2c2 d4 |
B3c d2e2 | d2b2g2b2 | a3gf2a2 | c'2b2 g4 |\
GABc dedc | d2b2g2b2 | a3gf2a2 | g2b2 "^da Capo"g4 :|

%%sep 1 1 500
%%sep 1 1 500
